X: 1864
T: Tarz-ı Kürdîlihicazkâr`ın da
C: Ahmet Avni Konuk
O: Turkey
F: http://compmusic.upf.edu/node/140
N: kurdilihicazkar--kupe--devrirevanihindi----ahmet_avni_konuk
N: makam= kurdilihicazkar
N: form= kupe
N: usul= devrirevanihindi = 14/8
M: 14/8
L: 1/16
K: C _B _e _A 
Q: 1/4=102
%%MIDI tuningsystem comma53
^f4 _7/8a2g3fe2 f2g4gf feed d2z2  | \
w:  Tarz_ ı  Kür *  *  *  dî  | 
d2e2 e2g3^fe2 _7/8agg4d2 e2f2 g2z2  | 
w:  li *  hi caz *  *  *  *  kâ  | 
g4 =a2b4b/a/b/c'/ baa4ag g2g^f f2fe  | \
w:  rın  da  pek  *  *  *  *  *  *  şû  | 
g4 _7/8a2g4d'2 c'_1/4bba a2ag g6z2  | 
w:  hâ *  *  ne *  *  dir    | 
g4 c'2b2 a2g2 f2f2 g2gf feed e4  | \
w:  Doğ ru su  *  *  *  her   | 
e2d2 e2f3ag2 f2f2 e2ed dcBc d2z2  | 
w:  nağ *  me si  *  er  | 
c4 e2d3cB2 c2B4AG G4 d2z2  | cdef eddc cdBA {B}AGG2 B2AG G6z2  | 
w:  vâ ha  bir  *  *  *  kâ  |  şâ *  *  *  *  *  *  *  *  *  ne *  *  *  *  dir    | 
|


